assets/images/feature-num01.svg

<svg display="block" fill="none" preserveAspectRatio="none" viewBox="0 0 45.2393 43.6204" xmlns="http://www.w3.org/2000/svg"><path clip-rule="evenodd" d="m22.6725 43.5671c-2.5579.004-4.65.1581-7.068-.8319-2.918-1.193-5.026-2.795-7.62593-4.645-2.77301-1.974-5.43006-2.813-6.65406-6.8101-.726987-2.3769-1.672971-5.792-1.195004-8.2939 1.140014-5.9771 4.200014-10.7641 6.894044-15.89797 2.98405-5.68811 8.32395-6.839113 13.70195-6.845095 2.3391-.001953 5.298-.507934 7.598-.053955 2.976.587036 5.287 3.17603 7.6371 5.18701 1.6489 1.41101 4.0789 2.146 5.4189 3.99195.777 1.07006 1.192 2.47496 1.802 3.67006 1.849 3.628 1.986 5.005 1.987 9.3399.001 2.886.4461 5.8271-.908 8.3981-1.302 2.4719-4.015 6.1129-6.022 7.6699-3.904 3.0281-8.99 5.578-15.566 5.121z" fill="#298932" fill-rule="evenodd"/></svg>

<svg preserveAspectRatio="none" width="100%" height="100%" overflow="visible" style="display: block;" viewBox="0 0 45.2393 43.6204" fill="none" xmlns="http://www.w3.org/2000/svg">
<g id="&#227;&#130;&#176;&#227;&#131;&#171;&#227;&#131;&#188;&#227;&#131;&#151; 134">
<path id="&#227;&#131;&#145;&#227;&#130;&#185; 155" fill-rule="evenodd" clip-rule="evenodd" d="M22.6725 43.5671C20.1146 43.5711 18.0225 43.7252 15.6045 42.7352C12.6865 41.5422 10.5785 39.9402 7.97857 38.0902C5.20556 36.1162 2.54851 35.2772 1.32451 31.2801C0.597523 28.9032 -0.348461 25.4881 0.129506 22.9862C1.26952 17.0091 4.32952 12.2221 7.02355 7.08823C10.0076 1.40012 15.3475 0.249117 20.7255 0.243135C23.0646 0.241182 26.0235 -0.264799 28.3235 0.18918C31.2995 0.776216 33.6105 3.36521 35.9606 5.37619C37.6095 6.7872 40.0395 7.52219 41.3795 9.36814C42.1565 10.4382 42.5715 11.8431 43.1815 13.0382C45.0305 16.6662 45.1675 18.0432 45.1685 22.3781C45.1695 25.2641 45.6146 28.2052 44.2605 30.7762C42.9585 33.2481 40.2455 36.8891 38.2385 38.4461C34.3345 41.4742 29.2485 44.0241 22.6725 43.5671Z" fill="#298932"/>
</g>
</svg>
